azure-patterns/svg-gesture.svg

<svg xmlns="http://www.w3.org/2000/svg" viewBox="0 0 32 32"><path d="M30 24v4.4L15.51 13.91 26 3.41V8h2V0h-8v2h4.59l-10.5 10.49L3.6 2H8V0H0v8h2V3.23l10.68 10.68L2 24.59V20H0v8h8v-2H3.41l10.68-10.68L28.77 30H24v2h8v-8zM2 2z" fill="#0063b1"/></svg>

<svg xmlns="http://www.w3.org/2000/svg" viewBox="0 0 32 32">
                                
                            
    <path d="M30,24v4.4L15.51,13.91,26,3.41V8h2V0H20V2h4.59L14.09,12.49,3.6,2H8V0H0V8H2V3.23L12.68,13.91,2,24.59V20H0v8H8V26H3.41L14.09,15.32,28.77,30H24v2h8V24ZM2,2H2Z" fill="#0063b1"></path>
</svg>
